X: 8251
T: Cordal, The
R: jig
M: 6/8
K: Adorian
|:BAF E3|FEF DFA|BAF DFA|B2A Bcd|
BAF E3|FEF DFA|d2f edc|B2A Bcd:|
|:d2e g/f/ed|c2d ecA|d2e g/f/ed|f2e fga|
d2e g/f/ed|cF/G/c ecA|dfd cec|B2A Bcd:|
|:BAF E3|FEF DF/G/A|BAF DFA|B2A Bcd|
BAF E3|FEF DF/G/A|d2f edc|B2A Bcd:|
|:d3 g/f/ed|c3 ecA|d3 g/f/ed|f2e fga|
d2e g/f/ed|cF/G/c ecA|df/g/d cf/g/c|B2A Bcd:|

